X:1
T:Title
%%score { 1 | 2 }
L:1/8
M:4/4
K:G
V:1 treble nm="Grand Piano"
V:2 bass 
V:1
 z4 z2[Q:1/4=100] D2 | G3 A G>F E>F | G2 G4 A2 | B2 G2 G2 B2 |[M:3/4] [CFA]6 |[M:1/4] D2 | %6
[M:4/4] G3 A G>F E>F | G2 G4 A2 | B2 [EGc]2 [CFA]3 G |[M:3/4] G6 |[M:1/4] G2 |[M:4/4] A2 A2 F2 D2 | %12
 [DG]>[DG] [DA]>[DA] [DB]3 [^DB] | [^DB]2 [DF]2 [EG]3 [DF] |[M:3/4] E6 |[M:1/4] D>D | %16
[M:4/4] G>G G>G A2 D2 | B2 B2 [Gc]2 [G^c]2 | [Gd]2 [GB]2 [FA]3 [B,G] |[M:3/4] [B,DG]6 |] %20
V:2
 z4 z2 D,2 | [G,B,D]3 [G,CD] [D,A,D]>[D,A,D] [D,A,C]>[D,A,C] | [G,B,]2 [G,B,D]4 [F,D]2 | %3
 [G,DG]2 [G,B,D]2 [A,^C]2 [A,CG]2 |[M:3/4][K:bass] D,6 |[M:1/4] D,2 | %6
[M:4/4] [G,B,D]3 [G,CD] [D,B,D]>[D,A,D] [D,A,C]>[D,A,C] | [G,B,]2[K:treble] [G,B,D]4 [G,CD]2 | %8
 [G,DG]2[K:bass] C,2 D,3 [G,B,] |[M:3/4] [G,B,D]6 |[M:1/4] [G,B,D]2 | %11
[M:4/4] [F,CD]2 [E,CD]2 [D,A,D]2 [C,F,]2 | [B,,G,]>[B,,G,] [A,,F,]>[A,,F,] [G,,G,]3 [B,,F,] | %13
 [B,,F,]2 [B,,B,]2 [B,,B,]3 [B,,A,] |[M:3/4] [E,G,]6 |[M:1/4] [F,C]>[F,C] | %16
[M:4/4] [G,B,D]>[G,B,D] [G,B,D]>[G,B,D] [D,F,D]2 [D,F,]2 | [G,D]2 [=F,G,D]2 [E,G,]2 [^D,_B,]2 | %18
 [D,B,]2 [D,D]2 [D,C]3 [G,,G,] |[M:3/4] [G,,G,]6 |] %20

